remix/Communication/chat-smile-2-fill.svg

<svg viewBox="0 0 24 24" fill="currentColor" xmlns="http://www.w3.org/2000/svg"><path d="M7.29117 20.8242L2 22L3.17581 16.7088C2.42544 15.3056 2 13.7025 2 12C2 6.47715 6.47715 2 12 2C17.5228 2 22 6.47715 22 12C22 17.5228 17.5228 22 12 22C10.2975 22 8.6944 21.5746 7.29117 20.8242ZM7 12C7 14.7614 9.23858 17 12 17C14.7614 17 17 14.7614 17 12H15C15 13.6569 13.6569 15 12 15C10.3431 15 9 13.6569 9 12H7Z"/></svg>

<svg viewBox="0 0 24 24" xmlns="http://www.w3.org/2000/svg"><path fill="none" d="M0 0h24v24H0Z"/><path d="M7.291 20.824L2 21.994l1.17-5.291h-.001c-.78-1.45-1.18-3.07-1.18-4.71 0-5.53 4.47-10 10-10 5.523 0 10 4.477 10 10s-4.477 10-10 10h-.001c-1.65 0-3.27-.41-4.71-1.18Zm-.3-8.83v0c0 2.76 2.23 5 5 5 2.76 0 5-2.24 5-5h-2v0c0 1.65-1.35 3-3 3 -1.66 0-3-1.35-3-3h-2Z"/></svg>
